icons/src/svg/fuel_gauge_inactive.svg

<svg width="32" height="32" viewBox="0 0 32 32" fill="none" xmlns="http://www.w3.org/2000/svg">
<path fill-rule="evenodd" clip-rule="evenodd" d="M24 17V19.7574L22 17.7574V17C22 16.4477 21.5523 16 21 16H20.2426L18 13.7574V12H16.2426L14.2426 10H18V4H8.24264L6.24264 2H18C19.1046 2 20 2.89543 20 4V14H21C22.6569 14 24 15.3431 24 17ZM28 9.40011V23.7574L26 21.7574V13C24.8965 13 24.0018 12.1063 24 11.0032V11V7.40772L22.2942 5.70845C21.903 5.31867 21.9018 4.68551 22.2915 4.29424C22.6813 3.90297 23.3145 3.90177 23.7058 4.29155L27.4115 7.9832C27.7882 8.35849 28 8.86836 28 9.40011ZM20 24.2426L18 22.2426V28H6V12H7.75736L4 8.24264V28C4 28.0173 4.00022 28.0345 4.00065 28.0516C4.00326 28.1546 4.01365 28.2556 4.03125 28.3541C4.19842 29.2898 5.01627 30 6 30H18C18.9665 30 19.7729 29.3144 19.9594 28.4031C19.986 28.2729 20 28.1381 20 28V24.2426ZM25.68 29.9226L22 26.2426V27C22 28.6569 23.3431 30 25 30C25.2339 30 25.4615 29.9732 25.68 29.9226ZM3.70711 2.29289C3.31658 1.90237 2.68342 1.90237 2.29289 2.29289C1.90237 2.68342 1.90237 3.31658 2.29289 3.70711L28.2929 29.7071C28.6834 30.0976 29.3166 30.0976 29.7071 29.7071C30.0976 29.3166 30.0976 28.6834 29.7071 28.2929L3.70711 2.29289Z" fill="#0D0F13"/>
</svg>

<svg fill="none" xmlns="http://www.w3.org/2000/svg" viewBox="0 0 32 32">
  <path fill-rule="evenodd" clip-rule="evenodd" d="M24 17v2.757l-2-2V17a1 1 0 0 0-1-1h-.757L18 13.757V12h-1.757l-2-2H18V4H8.243l-2-2H18a2 2 0 0 1 2 2v10h1a3 3 0 0 1 3 3Zm4-7.6v14.357l-2-2V13a2 2 0 0 1-2-1.997V7.408l-1.706-1.7a1 1 0 0 1 1.412-1.416l3.706 3.691A2 2 0 0 1 28 9.4Zm-8 14.843-2-2V28H6V12h1.757L4 8.243V28a2.053 2.053 0 0 0 .031.354A2 2 0 0 0 6 30h12a2 2 0 0 0 2-2v-3.757Zm5.68 5.68L22 26.243V27a3 3 0 0 0 3.68 2.923ZM3.707 2.293a1 1 0 0 0-1.414 1.414l26 26a1 1 0 0 0 1.414-1.414l-26-26Z" fill="currentColor"/>
</svg>
